icons/folder-ci.svg

<svg xmlns="http://www.w3.org/2000/svg" viewBox="0 0 16 16">
<path id="folder" fill="#0288d1" d="m6.922 3.768-.644-.536A1 1 0 0 0 5.638 3H2a1 1 0 0 0-1 1v8a1 1 0 0 0 1 1h12a1 1 0 0 0 1-1V5a1 1 0 0 0-1-1H7.562a1 1 0 0 1-.64-.232" />
<path id="motive" fill="#b3e5fc" d="M 11.99975,6.500023 V 7.999635 L 14.000125,6.00032 11.99975,4 V 5.499612 A 3.9907483,4.0076701 0 0 0 8,9.499247 v 10e-4 a 3.9507408,3.967493 0 0 0 0.619616,2.129388 L 9.349753,10.898913 A 2.9305495,2.9429758 0 0 1 8.999687,9.500251 2.9940614,3.006757 0 0 1 12.00025,6.500023 m 3.380134,0.869835 -0.730137,0.730219 a 2.9845596,2.997215 0 0 1 -2.650497,4.399398 v -1.49911 L 9.999375,13.000684 11.99975,15 V 13.500388 A 3.9907483,4.0076701 0 0 0 16,9.500753 v -5e-4 A 3.935738,3.9524266 0 0 0 15.379883,7.370865 Z" />
</svg>

<svg xmlns="http://www.w3.org/2000/svg" viewBox="0 0 16 16"><path id="folder" fill="#0288d1" d="m6.922 3.768-.644-.536A1 1 0 0 0 5.638 3H2a1 1 0 0 0-1 1v8a1 1 0 0 0 1 1h12a1 1 0 0 0 1-1V5a1 1 0 0 0-1-1H7.562a1 1 0 0 1-.64-.232"/><path id="motive" fill="#b3e5fc" d="M12 6.5V8l2-2-2-2v1.5a3.99 4.008 0 0 0-4 4 3.95 3.967 0 0 0 .62 2.13l.73-.731A2.93 2.943 0 0 1 9 9.5a2.994 3.007 0 0 1 3-3m3.38.87-.73.73A2.985 2.997 0 0 1 12 12.5V11l-2 2 2 2v-1.5a3.99 4.008 0 0 0 4-4 3.936 3.952 0 0 0-.62-2.13"/></svg>
